libs/icons/src/svg/comment.svg

<svg width="16" height="16" viewBox="0 0 16 16" fill="none" xmlns="http://www.w3.org/2000/svg">
<g clip-path="url(#clip0_3_3332)">
<path fill-rule="evenodd" clip-rule="evenodd" d="M0 7.33334C0 3.51258 3.69694 0.666672 8 0.666672C12.3031 0.666672 16 3.51258 16 7.33334C16 8.90143 15.3332 10.3083 14.2982 11.4349L14.6623 14.5903C14.6893 14.8242 14.5908 15.0551 14.4033 15.1975C14.2157 15.34 13.967 15.3729 13.7488 15.2842L10.0264 13.77C9.35756 13.9434 8.69438 14 8 14C3.69694 14 0 11.1541 0 7.33334ZM8 2.00001C4.16973 2.00001 1.33333 4.48743 1.33333 7.33334C1.33333 10.1792 4.16973 12.6667 8 12.6667C8.69217 12.6667 9.28981 12.6037 9.8751 12.4281C10.0208 12.3844 10.177 12.3918 10.3179 12.4491L13.2087 13.6251L12.9377 11.2764C12.9144 11.0743 12.9847 10.8725 13.1286 10.7286C14.0985 9.75865 14.6667 8.58683 14.6667 7.33334C14.6667 4.48743 11.8303 2.00001 8 2.00001Z" fill="#202327"/>
</g>
<defs>
<clipPath id="clip0_3_3332">
<rect width="16" height="16" fill="white"/>
</clipPath>
</defs>
</svg>

<svg xmlns="http://www.w3.org/2000/svg" viewBox="0 0 16 16" class="sageicon"><path fill-rule="evenodd" d="M0 7.333C0 3.513 3.697.667 8 .667s8 2.846 8 6.666c0 1.568-.667 2.975-1.702 4.102l.364 3.155a.667.667 0 0 1-.913.694l-3.723-1.514C9.358 13.943 8.694 14 8 14c-4.303 0-8-2.846-8-6.667ZM8 2C4.17 2 1.333 4.487 1.333 7.333S4.17 12.667 8 12.667c.692 0 1.29-.063 1.875-.239a.667.667 0 0 1 .443.021l2.89 1.176-.27-2.349a.667.667 0 0 1 .19-.547c.97-.97 1.539-2.142 1.539-3.396C14.667 4.487 11.83 2 8 2Z"/></svg>
